packages/sources/assets/src/assets/flag-pk.svg

<svg width="28" height="20" viewBox="0 0 28 20" fill="none" xmlns="http://www.w3.org/2000/svg">
<rect x="0.25" y="0.25" width="27.5" height="19.5" rx="1.75" fill="white" stroke="#F5F5F5" stroke-width="0.5"/>
<mask id="mask0_503_2699" style="mask-type:alpha" maskUnits="userSpaceOnUse" x="0" y="0" width="28" height="20">
<rect x="0.25" y="0.25" width="27.5" height="19.5" rx="1.75" fill="white" stroke="white" stroke-width="0.5"/>
</mask>
<g mask="url(#mask0_503_2699)">
<path fill-rule="evenodd" clip-rule="evenodd" d="M28 0H8V20H28V0Z" fill="#0A632F"/>
<path fill-rule="evenodd" clip-rule="evenodd" d="M23.6701 10.7505C23.5418 12.0012 23.0087 13.2029 22.0665 14.1451C19.8206 16.391 16.1005 16.3121 13.7574 13.969C11.4142 11.6258 11.3354 7.90568 13.5812 5.65982C14.5234 4.7176 15.7251 4.18455 16.9758 4.05622C16.5818 4.28838 16.209 4.57485 15.8685 4.91527C13.8268 6.95697 13.7259 10.1662 15.643 12.0833C17.5601 14.0005 20.7693 13.8995 22.811 11.8578C23.1515 11.5174 23.4379 11.1445 23.6701 10.7505ZM21.0924 8.10469L20.7742 10.0031L19.8849 8.29594L17.981 8.57994L19.3298 7.2066L18.4714 5.48368L20.1943 6.3421L21.5677 4.99328L21.2837 6.89715L22.9909 7.78645L21.0924 8.10469Z" fill="white"/>
</g>
</svg>

<svg width="28" height="20" fill="none" xmlns="http://www.w3.org/2000/svg"><rect x=".25" y=".25" width="27.5" height="19.5" rx="1.75" fill="#fff" stroke="#F5F5F5" stroke-width=".5"/><mask id="a" style="mask-type:alpha" maskUnits="userSpaceOnUse" x="0" y="0" width="28" height="20"><rect x=".25" y=".25" width="27.5" height="19.5" rx="1.75" fill="#fff" stroke="#fff" stroke-width=".5"/></mask><g mask="url(#a)" fill-rule="evenodd" clip-rule="evenodd"><path d="M28 0H8v20h20V0Z" fill="#0A632F"/><path d="M23.67 10.75a5.576 5.576 0 0 1-1.604 3.395c-2.245 2.246-5.965 2.167-8.309-.176-2.343-2.343-2.422-6.063-.176-8.31a5.576 5.576 0 0 1 3.395-1.603 5.554 5.554 0 0 0-1.107.86c-2.042 2.041-2.143 5.25-.226 7.167 1.917 1.918 5.126 1.816 7.168-.225.34-.34.627-.713.86-1.107Zm-2.578-2.645-.318 1.898-.89-1.707-1.903.284 1.349-1.373-.859-1.723 1.723.858 1.374-1.349-.284 1.904 1.707.89-1.899.318Z" fill="#fff"/></g></svg>
